X: 1045
T: Young Jane
B: jims roots
M:3/4
L:1/8
R: waltz
Q: 1/4=100
K:Gmaj
V:1 
%Z: Mix O'Lydian
%S: <a href="http://thesession.org/tunes/13451#setting23746" rel="nofollow">http://thesession.org/tunes/13451#setting23746</a>
(3DEF | "G" G3 A B2 | "D7" A2 B2 d2 | "C" e4 e2 | "G" d3 B A2 |"G" G3 A B2 | "Am" A4 G2 |
"Am" E6 | "D7" D4 EF |"G" G3 A B2 | "D7" A2 B2 d2 |"C" e4 e2 | "G" d4 e2 |
"G" G3 A B2 | "D7" A4 G2 | "G" G6- | "G" G4 Bc |]"G" d2 B2 d2 | "G" g3 f g2 |
"C" e4 e2 | "D7" A4 B2 |"Am" c3 d e2 | "G" d2 B2 A2 | "G" G6 | "D7" F4 (3DEF |
"G" G3 A B2 | "D7" A2 B2 d2 | "C" e4 e2 | "G" d4 g2 |"G" G3 A B2 | "D7" A4 G2 | "G" G6- | "G" G4 |]
% abcbook-tune_id 6298c2970bfd9ee0ad460012


% abcbook-boost 0
% abcbook-tablature 
% abcbook-transpose 
% abcbook-lastupdated 1654178457209
% abcbook-soundfonts 
% abcbook-repeats 1


